gtk-icons/Papirus-GTK/16x16/mimetypes/package-x-generic.svg

<?xml version="1.0" encoding="UTF-8" standalone="no"?>
<svg
   xmlns:dc="http://purl.org/dc/elements/1.1/"
   xmlns:cc="http://creativecommons.org/ns#"
   xmlns:rdf="http://www.w3.org/1999/02/22-rdf-syntax-ns#"
   xmlns:svg="http://www.w3.org/2000/svg"
   xmlns="http://www.w3.org/2000/svg"
   xmlns:sodipodi="http://sodipodi.sourceforge.net/DTD/sodipodi-0.dtd"
   xmlns:inkscape="http://www.inkscape.org/namespaces/inkscape"
   width="16px"
   height="16px"
   viewBox="0 0 16 16"
   version="1.1"
   id="svg2"
   inkscape:version="0.91 r"
   sodipodi:docname="package-x-generic.svg">
  <metadata
     id="metadata25">
    <rdf:RDF>
      <cc:Work
         rdf:about="">
        <dc:format>image/svg+xml</dc:format>
        <dc:type
           rdf:resource="http://purl.org/dc/dcmitype/StillImage" />
      </cc:Work>
    </rdf:RDF>
  </metadata>
  <defs
     id="defs23" />
  <sodipodi:namedview
     pagecolor="#ffffff"
     bordercolor="#666666"
     borderopacity="1"
     objecttolerance="10"
     gridtolerance="10"
     guidetolerance="10"
     inkscape:pageopacity="0"
     inkscape:pageshadow="2"
     inkscape:window-width="1535"
     inkscape:window-height="876"
     id="namedview21"
     showgrid="false"
     inkscape:zoom="14.75"
     inkscape:cx="-4.0338983"
     inkscape:cy="8"
     inkscape:window-x="65"
     inkscape:window-y="24"
     inkscape:window-maximized="1"
     inkscape:current-layer="svg2" />
  <g
     id="surface1"
     transform="translate(-0.5,0.5)">
    <path
       style="fill:#a6d75c;fill-opacity:1;fill-rule:nonzero;stroke:none"
       d="m 14.5,13.851562 0,-11.703124 C 14.5,1.789062 14.210938,1.5 13.851562,1.5 L 2.148438,1.5 C 1.789062,1.5 1.5,1.789062 1.5,2.148438 l 0,11.703124 C 1.5,14.210938 1.789062,14.5 2.148438,14.5 l 11.703124,0 C 14.210938,14.5 14.5,14.210938 14.5,13.851562 Z m 0,0"
       id="path5"
       inkscape:connector-curvature="0" />
    <path
       style="fill:#000000;fill-opacity:0.2;fill-rule:nonzero;stroke:none"
       d="m 7.5,1.5 0,5 C 7.5,6.84375 7.78125,7 8.125,7 8.46875,7 8.5,6.84375 8.5,6.5 l 0,-5 z m 0,0"
       id="path7"
       inkscape:connector-curvature="0" />
    <path
       style="fill:#ffffff;fill-opacity:0.5019609;fill-rule:nonzero;stroke:none"
       d="m 7.75,1.5 0,0.25 0.25,0 0,-0.25 z m 0,0.5 0,0.25 L 8,2.25 8,2 Z m 0,0.5 0,0.25 0.25,0 0,-0.25 z m 0,0.5 0,0.25 L 8,3.25 8,3 Z m 0,0.5 0,0.25 0.25,0 0,-0.25 z m 0,0.5 0,0.25 L 8,4.25 8,4 Z m 0,0.5 0,0.25 0.25,0 0,-0.25 z m 0,0.5 0,0.25 L 8,5.25 8,5 Z m 0,0.5 0,0.25 0.25,0 0,-0.25 z m 0,0.5 0,0.25 L 8,6.25 8,6 Z m 0,0.5 C 7.75,6.625 7.863281,6.75 8,6.75 L 8,6.5 Z m 0,0"
       id="path9"
       inkscape:connector-curvature="0" />
    <path
       style="fill:#000000;fill-opacity:0.2;fill-rule:nonzero;stroke:none"
       d="M 8,7 C 7.585938,7 7.25,7.335938 7.25,7.75 l 0,1.5 C 7.25,9.664062 7.585938,10 8,10 8.414062,10 8.75,9.664062 8.75,9.25 l 0,-1.5 C 8.75,7.335938 8.414062,7 8,7 Z M 8,7.5 C 8.136719,7.5 8.25,7.601562 8.25,7.75 8.25,7.875 8.136719,8 8,8 7.863281,8 7.75,7.875 7.75,7.75 7.75,7.601562 7.863281,7.5 8,7.5 Z m 0,1 c 0.136719,0 0.25,0.132812 0.25,0.332031 l 0,0.335938 C 8.25,9.332031 8.136719,9.5 8,9.5 7.863281,9.5 7.75,9.332031 7.75,9.167969 l 0,-0.335938 C 7.75,8.632812 7.863281,8.5 8,8.5 Z m 0,0"
       id="path11"
       inkscape:connector-curvature="0" />
    <path
       style="fill:#f5f5f5;fill-opacity:1;fill-rule:nonzero;stroke:none"
       d="M 8,6.75 C 7.585938,6.75 7.25,7.085938 7.25,7.5 l 0,1.5 C 7.25,9.414062 7.585938,9.75 8,9.75 8.414062,9.75 8.75,9.414062 8.75,9 l 0,-1.5 C 8.75,7.085938 8.414062,6.75 8,6.75 Z m 0,0.5 C 8.136719,7.25 8.25,7.351562 8.25,7.5 8.25,7.625 8.136719,7.75 8,7.75 7.863281,7.75 7.75,7.625 7.75,7.5 7.75,7.351562 7.863281,7.25 8,7.25 Z m 0,1 c 0.136719,0 0.25,0.132812 0.25,0.332031 l 0,0.335938 C 8.25,9.082031 8.136719,9.25 8,9.25 7.863281,9.25 7.75,9.082031 7.75,8.917969 l 0,-0.335938 C 7.75,8.382812 7.863281,8.25 8,8.25 Z m 0,0"
       id="path13"
       inkscape:connector-curvature="0" />
    <path
       style="fill:#000000;fill-opacity:0.30196102;fill-rule:nonzero;stroke:none"
       d="M 8,1.75 8,2 l 0.25,0 0,-0.25 z m 0,0.5 0,0.25 0.25,0 0,-0.25 z m 0,0.5 0,0.25 0.25,0 0,-0.25 z m 0,0.5 0,0.25 0.25,0 0,-0.25 z m 0,0.5 0,0.25 0.25,0 0,-0.25 z m 0,0.5 0,0.25 0.25,0 0,-0.25 z m 0,0.5 0,0.25 0.25,0 0,-0.25 z m 0,0.5 0,0.25 0.25,0 0,-0.25 z m 0,0.5 0,0.25 0.25,0 0,-0.25 z m 0,0.5 0,0.25 0.25,0 0,-0.25 z m 0,0"
       id="path15"
       inkscape:connector-curvature="0" />
    <path
       style="fill:#000000;fill-opacity:0.30196102;fill-rule:nonzero;stroke:none"
       d="m 1.5,13.351562 0,0.5 C 1.5,14.210938 1.789062,14.5 2.148438,14.5 l 11.703124,0 C 14.210938,14.5 14.5,14.210938 14.5,13.851562 l 0,-0.5 C 14.5,13.710938 14.210938,14 13.851562,14 L 2.148438,14 C 1.789062,14 1.5,13.710938 1.5,13.351562 Z m 0,0"
       id="path17"
       inkscape:connector-curvature="0" />
    <path
       style="fill:#ffffff;fill-opacity:0.2;fill-rule:nonzero;stroke:none"
       d="M 2.148438,1.5 C 1.789062,1.5 1.5,1.789062 1.5,2.148438 l 0,0.5 C 1.5,2.289062 1.789062,2 2.148438,2 L 13.851562,2 C 14.210938,2 14.5,2.289062 14.5,2.648438 l 0,-0.5 C 14.5,1.789062 14.210938,1.5 13.851562,1.5 Z m 0,0"
       id="path19"
       inkscape:connector-curvature="0" />
  </g>
</svg>

<?xml version="1.0" encoding="UTF-8" standalone="no"?>
<svg id="svg2" xmlns:rdf="http://www.w3.org/1999/02/22-rdf-syntax-ns#" xmlns="http://www.w3.org/2000/svg" height="16px" width="16px" version="1.1" xmlns:cc="http://creativecommons.org/ns#" xmlns:dc="http://purl.org/dc/elements/1.1/" viewBox="0 0 16 16">
 <metadata id="metadata25">
  <rdf:RDF>
   <cc:Work rdf:about="">
    <dc:format>image/svg+xml</dc:format>
    <dc:type rdf:resource="http://purl.org/dc/dcmitype/StillImage"/>
   </cc:Work>
  </rdf:RDF>
 </metadata>
 <g id="surface1" transform="translate(-.5 .5)">
  <path id="path5" d="m14.5 13.852v-11.703c0-0.3599-0.289-0.649-0.648-0.649h-11.704c-0.3589 0-0.648 0.2891-0.648 0.6484v11.703c0 0.36 0.2891 0.649 0.6484 0.649h11.703c0.36 0 0.649-0.289 0.649-0.648z" fill="#a6d75c"/>
  <path id="path7" d="m7.5 1.5v5c0 0.3438 0.2812 0.5 0.625 0.5s0.375-0.1562 0.375-0.5v-5z" fill-opacity=".2"/>
  <path id="path9" d="m7.75 1.5v0.25h0.25v-0.25zm0 0.5v0.25h0.25v-0.25zm0 0.5v0.25h0.25v-0.25zm0 0.5v0.25h0.25v-0.25zm0 0.5v0.25h0.25v-0.25zm0 0.5v0.25h0.25v-0.25zm0 0.5v0.25h0.25v-0.25zm0 0.5v0.25h0.25v-0.25zm0 0.5v0.25h0.25v-0.25zm0 0.5v0.25h0.25v-0.25zm0 0.5c0 0.125 0.1133 0.25 0.25 0.25v-0.25z" fill-opacity=".50196" fill="#fff"/>
  <path id="path11" d="m8 7c-0.4141 0-0.75 0.3359-0.75 0.75v1.5c0 0.4141 0.3359 0.75 0.75 0.75s0.75-0.3359 0.75-0.75v-1.5c0-0.4141-0.3359-0.75-0.75-0.75zm0 0.5c0.1367 0 0.25 0.1016 0.25 0.25 0 0.125-0.1133 0.25-0.25 0.25s-0.25-0.125-0.25-0.25c0-0.1484 0.1133-0.25 0.25-0.25zm0 1c0.13672 0 0.25 0.13281 0.25 0.33203v0.33594c0 0.1641-0.1133 0.3321-0.25 0.3321s-0.25-0.168-0.25-0.332v-0.33594c0-0.1993 0.1133-0.3321 0.25-0.3321z" fill-opacity=".2"/>
  <path id="path13" d="m8 6.75c-0.4141 0-0.75 0.3359-0.75 0.75v1.5c0 0.4141 0.3359 0.75 0.75 0.75s0.75-0.3359 0.75-0.75v-1.5c0-0.4141-0.3359-0.75-0.75-0.75zm0 0.5c0.1367 0 0.25 0.1016 0.25 0.25 0 0.125-0.1133 0.25-0.25 0.25s-0.25-0.125-0.25-0.25c0-0.1484 0.1133-0.25 0.25-0.25zm0 1c0.13672 0 0.25 0.13281 0.25 0.33203v0.33594c0 0.1641-0.1133 0.3321-0.25 0.3321s-0.25-0.168-0.25-0.332v-0.33594c0-0.1993 0.1133-0.3321 0.25-0.3321z" fill="#f5f5f5"/>
  <path id="path15" d="m8 1.75v0.25h0.25v-0.25zm0 0.5v0.25h0.25v-0.25zm0 0.5v0.25h0.25v-0.25zm0 0.5v0.25h0.25v-0.25zm0 0.5v0.25h0.25v-0.25zm0 0.5v0.25h0.25v-0.25zm0 0.5v0.25h0.25v-0.25zm0 0.5v0.25h0.25v-0.25zm0 0.5v0.25h0.25v-0.25zm0 0.5v0.25h0.25v-0.25z" fill-opacity=".30196"/>
  <path id="path17" d="m1.5 13.352v0.5c0 0.359 0.2891 0.648 0.6484 0.648h11.703c0.36 0 0.649-0.289 0.649-0.648v-0.5c0 0.359-0.289 0.648-0.648 0.648h-11.704c-0.3589 0-0.648-0.289-0.648-0.648z" fill-opacity=".30196"/>
  <path id="path19" d="m2.1484 1.5c-0.3593 0-0.6484 0.2891-0.6484 0.6484v0.5c0-0.3593 0.2891-0.6484 0.6484-0.6484h11.704c0.359 0 0.648 0.2891 0.648 0.6484v-0.5c0-0.3593-0.289-0.6484-0.648-0.6484z" fill-opacity=".2" fill="#fff"/>
 </g>
</svg>
